icons/unsplash-line.svg

<svg width="24" height="24" fill="none" xmlns="http://www.w3.org/2000/svg"><g clip-path="url(#a)"><path d="M10 10v4h4v-4h7v11H3V10h7Zm-2 2H5v7h14v-7h-3l-.001 4H8v-4Zm8-9v6H8V3h8Zm-2 2h-4v2h4V5Z" /></g><defs><clipPath id="a"><path fill="#fff" d="M0 0h24v24H0z"/></clipPath></defs></svg>

<svg xmlns="http://www.w3.org/2000/svg" width="24" height="24" fill="none"><g clip-path="url(#a)"><g><path fill="#121212" d="M10 10V14H14V10H21V21H3V10H10ZM8 12H5V19H19V12H16L15.999 16H8V12ZM16 3V9H8V3H16ZM14 5H10V7H14V5Z"/></g></g><defs><clipPath id="a"><rect width="24" height="24" fill="white"/></clipPath></defs></svg>
